src/img/main/seal.svg

<svg width="193" height="193" viewBox="0 0 193 193" fill="none" xmlns="http://www.w3.org/2000/svg">
<path d="M36.4436 118.241L35.8833 116.813L33.512 121.078L29.3222 119.626L29.8864 121.064L34.0671 122.405L30.9019 123.652L31.3572 124.812L37.9962 122.197L37.5409 121.037L35.4208 121.872L34.5183 121.564L36.4436 118.241Z" fill="#D77C69"/>
<path d="M31.4638 114.67C33.5406 114.205 34.7397 112.397 34.2794 110.316C33.8191 108.235 31.9709 107.109 29.8941 107.574C27.8173 108.039 26.6181 109.847 27.0784 111.928C27.5387 114.009 29.3869 115.135 31.4638 114.67ZM30.1703 108.822C31.6001 108.502 32.8856 109.164 33.1941 110.559C33.5048 111.963 32.6173 113.101 31.1876 113.421C29.7474 113.743 28.4745 113.089 28.1638 111.685C27.8554 110.29 28.7301 109.145 30.1703 108.822Z" fill="#D77C69"/>
<path d="M32.639 98.2712L32.5713 97.0257L25.4535 97.4382L25.5213 98.6837L28.4345 98.5149L28.6355 102.209L25.7223 102.378L25.79 103.623L32.9078 103.211L32.84 101.965L29.7347 102.145L29.5337 98.4512L32.639 98.2712Z" fill="#D77C69"/>
<path d="M33.1366 89.7845C33.288 88.2987 32.6324 87.3557 31.837 86.7313L31.1866 87.7396C31.7474 88.1374 32.1141 88.8592 32.0308 89.6764C31.8935 91.0243 30.7136 91.9594 29.2252 91.814C27.7366 91.6685 26.7688 90.5236 26.9061 89.1757C26.9894 88.3585 27.5052 87.723 28.1246 87.4405L27.6905 86.3262C26.7858 86.7737 25.9518 87.5819 25.8004 89.0677C25.5927 91.1054 26.9158 92.8746 29.0954 93.0875C31.275 93.3005 32.9289 91.8221 33.1366 89.7845Z" fill="#D77C69"/>
<path d="M28.1731 77.3545L31.7473 80.0994L27.2011 81.1606L26.8472 82.5465L32.702 81.021C33.2104 81.4896 33.3695 81.8156 33.2374 82.3328C33.1899 82.5189 33.1139 82.687 33.0071 82.8033L33.9531 83.3706C34.107 83.156 34.2563 82.8303 34.3276 82.5511C34.6287 81.372 34.1992 80.681 33.453 80.0648L28.5218 75.9892L28.1731 77.3545Z" fill="#D77C69"/>
<path d="M35.2604 74.7142L36.3916 75.1894C36.9306 73.9213 36.9017 72.7621 32.9125 70.6924L31.8583 70.1453L32.8444 67.8253L38.3921 70.1558L38.881 69.0056L32.3202 66.2495L30.4273 70.7028L32.4514 71.75C35.3216 73.2338 35.5613 74.0064 35.2604 74.7142Z" fill="#D77C69"/>
<path d="M35.2898 60.7757L34.6361 61.8418L40.7129 65.5368L42.3498 62.8671C43.1319 61.5915 42.693 60.349 41.6636 59.723C40.6341 59.097 39.3181 59.285 38.5416 60.5515L37.5583 62.1551L35.2898 60.7757ZM38.4967 62.7257L39.3906 61.2679C39.7593 60.6665 40.4101 60.4618 40.9932 60.8164C41.5762 61.1709 41.6907 61.8409 41.322 62.4423L40.4281 63.9002L38.4967 62.7257Z" fill="#D77C69"/>
<path d="M46.5775 56.9089L47.3711 55.9417L42.7132 52.1423L44.0833 50.4725L43.2326 49.7787L39.6988 54.0855L40.5495 54.7793L41.9196 53.1095L46.5775 56.9089Z" fill="#D77C69"/>
<path d="M54.9558 48.2159L55.9673 47.2932L49.0983 43.9403L47.9445 44.9927L50.6723 52.1227L51.6839 51.2001L51.1503 49.841L53.6477 47.5632L54.9558 48.2159ZM49.2336 45.2444L52.6459 46.9917L50.6701 48.7937L49.2336 45.2444Z" fill="#D77C69"/>
<path d="M63.3676 42.119L64.0911 43.2113L65.0101 42.6033L63.6807 40.5963L62.9491 41.0804L59.6314 36.0718L58.5875 36.7625L61.9052 41.7711L58.9875 43.7015L55.6698 38.6929L54.6259 39.3836L58.5495 45.3068L63.3676 42.119Z" fill="#D77C69"/>
<path d="M64.2291 33.4937L67.1596 39.9663L68.2604 39.4667L69.4364 33.0375L71.6507 37.9283L72.7905 37.4111L69.8601 30.9385L68.6911 31.469L67.5262 37.7411L65.369 32.9764L64.2291 33.4937Z" fill="#D77C69"/>
<path d="M74.641 29.1939L76.5041 36.0521L77.6698 35.7327L79.8518 29.567L81.2596 34.7492L82.4665 34.4185L80.6034 27.5603L79.3655 27.8994L77.2194 33.9118L75.8479 28.8632L74.641 29.1939Z" fill="#D77C69"/>
<path d="M91.3828 33.0827L94.9824 32.951C96.3175 32.9022 97.0275 32.0547 96.9913 30.957C96.9626 30.0832 96.3181 29.3493 95.5559 29.2598C96.2136 29.097 96.7707 28.4792 96.7412 27.584C96.7082 26.5823 95.9552 25.799 94.6521 25.8467L91.1486 25.9749L91.3828 33.0827ZM92.4952 28.8703L92.4345 27.0268L94.4319 26.9537C95.0728 26.9302 95.4489 27.3112 95.4665 27.8441C95.484 28.3769 95.1335 28.7738 94.4926 28.7973L92.4952 28.8703ZM92.5963 31.9394L92.5314 29.9679L94.5822 29.8929C95.2978 29.8667 95.6864 30.3006 95.704 30.8334C95.7243 31.4515 95.3307 31.8393 94.6471 31.8643L92.5963 31.9394Z" fill="#D77C69"/>
<path d="M100.583 33.0267L101.826 33.1568L102.114 30.516L103.984 30.7118C105.461 30.8663 106.411 29.936 106.541 28.7376C106.672 27.5392 105.954 26.4343 104.467 26.2787L101.354 25.9529L100.583 33.0267ZM105.266 28.6042C105.193 29.2829 104.634 29.675 103.933 29.6016L102.233 29.4237L102.478 27.1753L104.178 27.3532C104.879 27.4266 105.34 27.9254 105.266 28.6042Z" fill="#D77C69"/>
<path d="M114.123 35.4128L115.448 35.7494L114.521 28.1675L113.011 27.7835L108.515 33.9873L109.84 34.324L110.689 33.1301L113.959 33.9612L114.123 35.4128ZM113.501 28.9986L113.893 32.8099L111.306 32.1524L113.501 28.9986Z" fill="#D77C69"/>
<path d="M121.475 32.5383L122.264 30.68L121.113 30.197L120.324 32.0552C119.606 33.7463 119.957 34.6931 121.423 35.3082C122.2 35.6344 122.864 35.6814 123.31 35.6949L122.175 38.3692L123.326 38.8522L126.11 32.2944L124.959 31.8113L123.698 34.7805C123.262 34.7711 122.738 34.6671 122.227 34.4524C121.243 34.0396 121.045 33.5509 121.475 32.5383Z" fill="#D77C69"/>
<path d="M126.871 40.6447L131.053 43.1448L131.622 42.202L128.51 40.342L129.53 38.6486L132.578 40.4703L133.147 39.5275L130.099 37.7058L131.053 36.1222L134.165 37.9822L134.733 37.0394L130.551 34.5394L126.871 40.6447Z" fill="#D77C69"/>
<path d="M141.522 41.3193C142.115 41.8063 142.866 41.9521 143.563 41.7774L143.412 40.9894C142.931 41.1201 142.43 41.0406 142.026 40.7092C141.614 40.3711 141.448 39.9027 141.477 39.4L140.672 39.4034C140.642 40.1259 140.938 40.8391 141.522 41.3193ZM138.774 39.8098L134.232 45.3087L135.163 46.073L141.461 44.2716L138.029 48.4267L138.993 49.218L143.535 43.7191L142.547 42.9075L136.394 44.6491L139.738 40.6012L138.774 39.8098Z" fill="#D77C69"/>
<path d="M155.106 72.2892L155.719 73.6954L157.931 69.346L162.172 70.6433L161.555 69.2273L157.327 68.0405L160.445 66.6784L159.947 65.5359L153.408 68.3927L153.906 69.5353L155.994 68.623L156.907 68.8981L155.106 72.2892Z" fill="#D77C69"/>
<path d="M160.215 75.6741C158.156 76.215 157.025 78.0657 157.562 80.128C158.098 82.1902 159.987 83.2473 162.046 82.7064C164.104 82.1656 165.236 80.3148 164.699 78.2526C164.162 76.1903 162.273 75.1332 160.215 75.6741ZM161.724 81.4691C160.306 81.8414 158.997 81.227 158.637 79.8453C158.275 78.4533 159.12 77.2838 160.537 76.9114C161.965 76.5364 163.261 77.1432 163.623 78.5352C163.983 79.917 163.151 81.094 161.724 81.4691Z" fill="#D77C69"/>
<path d="M159.646 92.1022L159.76 93.3443L166.858 92.6703L166.745 91.4283L163.839 91.7041L163.502 88.0205L166.407 87.7447L166.294 86.5027L159.195 87.1766L159.309 88.4186L162.406 88.1246L162.743 91.8082L159.646 92.1022Z" fill="#D77C69"/>
<path d="M159.462 100.6C159.366 102.091 160.056 103.009 160.874 103.603L161.487 102.572C160.911 102.195 160.518 101.487 160.571 100.668C160.659 99.3159 161.803 98.3381 163.296 98.4287C164.79 98.5192 165.799 99.6277 165.712 100.979C165.659 101.799 165.167 102.453 164.558 102.758L165.033 103.855C165.921 103.375 166.724 102.537 166.821 101.047C166.953 99.0031 165.565 97.284 163.379 97.1514C161.193 97.0188 159.594 98.5567 159.462 100.6Z" fill="#D77C69"/>
<path d="M164.882 112.838L161.208 110.226L165.713 108.999L166.015 107.601L160.22 109.341C159.695 108.891 159.524 108.571 159.637 108.05C159.677 107.862 159.747 107.691 159.849 107.571L158.883 107.039C158.737 107.259 158.6 107.59 158.539 107.872C158.282 109.061 158.736 109.735 159.505 110.324L164.584 114.215L164.882 112.838Z" fill="#D77C69"/>
<path d="M157.896 115.736L156.748 115.303C156.256 116.59 156.328 117.747 160.391 119.668L161.465 120.176L160.565 122.531L154.934 120.406L154.488 121.573L161.147 124.086L162.875 119.567L160.813 118.595C157.89 117.218 157.622 116.455 157.896 115.736Z" fill="#D77C69"/>
<path d="M158.382 129.665L158.995 128.575L152.786 125.107L151.248 127.834C150.514 129.138 150.998 130.363 152.05 130.951C153.102 131.538 154.41 131.302 155.14 130.008L156.063 128.37L158.382 129.665ZM155.104 127.834L154.265 129.324C153.919 129.938 153.276 130.166 152.68 129.834C152.084 129.501 151.945 128.836 152.291 128.221L153.131 126.732L155.104 127.834Z" fill="#D77C69"/>
<path d="M147.243 133.943L146.485 134.939L151.281 138.564L149.973 140.283L150.849 140.945L154.222 136.511L153.346 135.849L152.039 137.568L147.243 133.943Z" fill="#D77C69"/>
<path d="M139.19 142.937L138.213 143.896L145.202 146.994L146.317 145.9L143.327 138.876L142.35 139.835L142.933 141.174L140.522 143.541L139.19 142.937ZM145.019 145.696L141.544 144.076L143.452 142.202L145.019 145.696Z" fill="#D77C69"/>
<path d="M131.008 149.338L130.245 148.274L129.348 148.915L130.751 150.871L131.465 150.361L134.966 155.243L135.983 154.515L132.483 149.632L135.327 147.596L138.828 152.479L139.846 151.75L135.706 145.976L131.008 149.338Z" fill="#D77C69"/>
<path d="M130.466 157.988L127.298 151.629L126.216 152.169L125.278 158.636L122.884 153.83L121.764 154.389L124.932 160.749L126.081 160.176L127.013 153.866L129.345 158.547L130.466 157.988Z" fill="#D77C69"/>
<path d="M120.218 162.668L118.103 155.884L116.949 156.246L114.996 162.486L113.398 157.36L112.204 157.735L114.319 164.519L115.544 164.135L117.467 158.048L119.024 163.042L120.218 162.668Z" fill="#D77C69"/>
<path d="M103.342 159.398L99.749 159.662C98.4163 159.76 97.738 160.632 97.8147 161.728C97.8758 162.6 98.5469 163.31 99.3121 163.371C98.6608 163.558 98.1268 164.196 98.1893 165.089C98.2593 166.089 99.0408 166.844 100.341 166.748L103.838 166.491L103.342 159.398ZM102.385 163.647L102.514 165.487L100.521 165.634C99.881 165.681 99.491 165.314 99.4537 164.782C99.4165 164.25 99.7522 163.841 100.392 163.794L102.385 163.647ZM102.171 160.585L102.309 162.552L100.262 162.702C99.5476 162.755 99.1432 162.336 99.1059 161.804C99.0628 161.187 99.4418 160.785 100.124 160.735L102.171 160.585Z" fill="#D77C69"/>
<path d="M94.1482 159.792L92.901 159.708L92.7111 162.357L90.835 162.23C89.3533 162.13 88.438 163.094 88.3518 164.297C88.2656 165.499 89.0239 166.576 90.5163 166.677L93.6396 166.888L94.1482 159.792ZM89.631 164.383C89.6798 163.702 90.2235 163.29 90.927 163.337L92.6326 163.453L92.4709 165.708L90.7654 165.593C90.0618 165.545 89.5822 165.064 89.631 164.383Z" fill="#D77C69"/>
<path d="M80.5274 157.906L79.1913 157.618L80.3973 165.16L81.9213 165.488L86.185 159.124L84.8489 158.836L84.044 160.06L80.7455 159.35L80.5274 157.906ZM81.3863 164.292L80.8539 160.498L83.4635 161.06L81.3863 164.292Z" fill="#D77C69"/>
<path d="M73.2861 161.048L72.566 162.934L73.7343 163.374L74.4543 161.489C75.1096 159.772 74.7235 158.839 73.2357 158.279C72.4469 157.981 71.7816 157.959 71.3351 157.962L72.3713 155.248L71.2031 154.808L68.662 161.462L69.8302 161.903L70.9807 158.89C71.4173 158.883 71.9447 158.968 72.4639 159.163C73.4624 159.54 73.6785 160.021 73.2861 161.048Z" fill="#D77C69"/>
<path d="M67.5938 153.147L63.321 150.803L62.7878 151.766L65.9667 153.51L65.0091 155.239L61.8956 153.531L61.3624 154.494L64.4759 156.202L63.5804 157.82L60.4015 156.076L59.8683 157.038L64.1411 159.383L67.5938 153.147Z" fill="#D77C69"/>
<path d="M52.9249 153.012C52.3142 152.547 51.5588 152.429 50.8685 152.629L51.0483 153.411C51.5244 153.263 52.0282 153.324 52.4438 153.64C52.8679 153.963 53.0511 154.424 53.0416 154.928L53.8456 154.895C53.8489 154.172 53.5271 153.47 52.9249 153.012ZM55.7273 154.419L60.0638 148.757L59.1054 148.028L52.8769 150.06L56.1537 145.782L55.1613 145.026L50.8248 150.688L51.8426 151.462L57.9272 149.496L54.7349 153.664L55.7273 154.419Z" fill="#D77C69"/>
<circle cx="96.6096" cy="96.5" r="52" stroke="#D77C69"/>
<circle cx="150.61" cy="54.5" r="1.5" fill="#D77C69"/>
<circle cx="42.6096" cy="137.5" r="1.5" fill="#D77C69"/>
</svg>

<svg width="193" height="193" fill="none" xmlns="http://www.w3.org/2000/svg"><path d="M36.444 118.241l-.56-1.428-2.372 4.265-4.19-1.452.564 1.438 4.181 1.341-3.165 1.247.455 1.16 6.64-2.615-.456-1.16-2.12.835-.903-.308 1.926-3.323zM31.464 114.67c2.077-.465 3.276-2.273 2.815-4.354-.46-2.081-2.308-3.207-4.385-2.742-2.077.465-3.276 2.273-2.816 4.354.46 2.081 2.309 3.207 4.386 2.742zm-1.294-5.848c1.43-.32 2.716.342 3.024 1.737.31 1.404-.577 2.542-2.006 2.862-1.44.322-2.713-.332-3.024-1.736-.309-1.395.566-2.54 2.006-2.863zM32.639 98.271l-.068-1.245-7.117.412.067 1.246 2.913-.17.201 3.695-2.913.169.068 1.245 7.118-.412-.068-1.246-3.105.18-.201-3.694 3.105-.18zM33.137 89.784c.151-1.485-.505-2.428-1.3-3.053l-.65 1.009c.56.397.927 1.12.844 1.936-.137 1.348-1.317 2.283-2.806 2.138-1.488-.145-2.456-1.29-2.319-2.638.083-.817.6-1.453 1.219-1.736l-.434-1.114c-.905.448-1.74 1.256-1.89 2.742-.208 2.037 1.115 3.807 3.294 4.02 2.18.213 3.834-1.266 4.042-3.303zM28.173 77.355l3.574 2.744-4.546 1.062-.354 1.385 5.855-1.525c.508.469.668.795.535 1.312a1.102 1.102 0 01-.23.47l.946.568c.154-.215.303-.54.375-.82.3-1.179-.129-1.87-.875-2.486l-4.931-4.076-.349 1.365zM35.26 74.714l1.132.475c.539-1.268.51-2.427-3.48-4.497l-1.054-.547.986-2.32 5.548 2.33.489-1.15-6.56-2.755-1.894 4.453 2.024 1.047c2.87 1.484 3.11 2.256 2.81 2.964zM35.29 60.776l-.654 1.066 6.077 3.695 1.637-2.67c.782-1.275.343-2.518-.686-3.144-1.03-.626-2.346-.438-3.122.828l-.984 1.604-2.268-1.38zm3.207 1.95l.894-1.458c.368-.602 1.02-.806 1.602-.452.583.355.698 1.025.329 1.626l-.894 1.458-1.931-1.174zM46.578 56.909l.793-.967-4.658-3.8 1.37-1.67-.85-.693-3.534 4.306.85.694 1.37-1.67 4.659 3.8zM54.956 48.216l1.011-.923-6.869-3.353-1.154 1.053 2.728 7.13 1.012-.923-.534-1.359 2.498-2.278 1.308.653zm-5.722-2.972l3.412 1.748-1.976 1.802-1.436-3.55zM63.368 42.119l.723 1.092.92-.608-1.33-2.007-.732.484-3.318-5.008-1.044.69 3.318 5.01-2.918 1.93-3.317-5.01-1.044.692 3.924 5.923 4.818-3.188zM64.23 33.494l2.93 6.472 1.1-.5 1.176-6.428 2.215 4.89 1.14-.517-2.93-6.473-1.17.531-1.165 6.272-2.157-4.765-1.14.518zM74.641 29.194l1.863 6.858 1.166-.32 2.182-6.165 1.408 5.182 1.206-.33-1.863-6.859-1.237.34-2.147 6.012-1.371-5.049-1.207.33zM91.383 33.083l3.6-.132c1.334-.049 2.044-.896 2.008-1.994-.028-.874-.673-1.608-1.435-1.697.658-.163 1.215-.78 1.185-1.676-.033-1.002-.786-1.785-2.089-1.737l-3.503.128.234 7.108zm1.112-4.213l-.06-1.843 1.997-.073c.64-.024 1.017.357 1.034.89.018.533-.332.93-.973.953l-1.998.073zm.101 3.07l-.065-1.972 2.051-.075c.716-.026 1.104.408 1.122.94.02.619-.373 1.006-1.057 1.031l-2.05.075zM100.583 33.027l1.243.13.288-2.641 1.87.196c1.477.154 2.427-.776 2.557-1.974.131-1.199-.587-2.304-2.074-2.46l-3.113-.325-.771 7.074zm4.683-4.423c-.073.679-.632 1.071-1.333.998l-1.7-.178.245-2.249 1.7.178c.701.074 1.162.572 1.088 1.251zM114.123 35.413l1.325.336-.927-7.582-1.51-.384-4.496 6.204 1.325.337.849-1.194 3.27.831.164 1.452zm-.622-6.414l.392 3.81-2.587-.657L113.501 29zM121.475 32.538l.789-1.858-1.151-.483-.789 1.858c-.718 1.691-.367 2.638 1.099 3.253a5.086 5.086 0 001.887.387l-1.135 2.674 1.151.483 2.784-6.558-1.151-.483-1.261 2.97a4.135 4.135 0 01-1.471-.329c-.984-.412-1.182-.901-.752-1.914zM126.871 40.645l4.182 2.5.569-.943-3.112-1.86 1.02-1.693 3.048 1.821.569-.942-3.048-1.822.954-1.584 3.112 1.86.568-.943-4.182-2.5-3.68 6.106zM141.522 41.32a2.307 2.307 0 002.041.457l-.151-.788c-.481.131-.982.052-1.386-.28-.412-.338-.578-.806-.549-1.309l-.805.003c-.03.723.266 1.436.85 1.916zm-2.748-1.51l-4.542 5.499.931.764 6.298-1.801-3.432 4.155.964.791 4.542-5.499-.988-.812-6.153 1.742 3.344-4.048-.964-.791zM155.106 72.29l.613 1.405 2.212-4.349 4.241 1.297-.617-1.416-4.228-1.187 3.118-1.362-.498-1.142-6.539 2.857.498 1.142 2.088-.912.913.275-1.801 3.391zM160.215 75.674c-2.059.541-3.19 2.392-2.653 4.454.536 2.062 2.425 3.12 4.484 2.578 2.058-.54 3.19-2.391 2.653-4.453-.537-2.063-2.426-3.12-4.484-2.579zm1.509 5.795c-1.418.372-2.727-.242-3.087-1.624-.362-1.392.483-2.561 1.9-2.934 1.428-.375 2.724.232 3.086 1.624.36 1.382-.472 2.559-1.899 2.934zM159.646 92.102l.114 1.242 7.098-.674-.113-1.242-2.906.276-.337-3.683 2.905-.276-.113-1.242-7.099.674.114 1.242 3.097-.294.337 3.683-3.097.294zM159.462 100.6c-.096 1.491.594 2.409 1.412 3.003l.613-1.031c-.576-.377-.969-1.085-.916-1.904.088-1.352 1.232-2.33 2.725-2.24 1.494.091 2.503 1.2 2.416 2.551a2.144 2.144 0 01-1.154 1.779l.475 1.097c.888-.48 1.691-1.318 1.788-2.808.132-2.044-1.256-3.763-3.442-3.896-2.186-.132-3.785 1.406-3.917 3.449zM164.882 112.838l-3.674-2.612 4.505-1.227.302-1.398-5.795 1.74c-.525-.45-.696-.77-.583-1.291.04-.188.11-.359.212-.479l-.966-.532c-.146.22-.283.551-.344.833-.257 1.189.197 1.863.966 2.452l5.079 3.891.298-1.377zM157.896 115.736l-1.148-.433c-.492 1.287-.42 2.444 3.643 4.365l1.074.508-.9 2.355-5.631-2.125-.446 1.167 6.659 2.513 1.728-4.519-2.062-.972c-2.923-1.377-3.191-2.14-2.917-2.859zM158.382 129.665l.613-1.09-6.209-3.468-1.538 2.727c-.734 1.304-.25 2.529.802 3.117 1.052.587 2.36.351 3.09-.943l.923-1.638 2.319 1.295zm-3.278-1.831l-.839 1.49c-.346.614-.989.842-1.585.51-.596-.333-.735-.998-.389-1.613l.84-1.489 1.973 1.102zM147.243 133.943l-.758.996 4.796 3.625-1.308 1.719.876.662 3.373-4.434-.876-.662-1.307 1.719-4.796-3.625zM139.19 142.937l-.977.959 6.989 3.098 1.115-1.094-2.99-7.024-.977.959.583 1.339-2.411 2.367-1.332-.604zm5.829 2.759l-3.475-1.62 1.908-1.874 1.567 3.494zM131.008 149.338l-.763-1.064-.897.641 1.403 1.956.714-.51 3.501 4.882 1.017-.728-3.5-4.883 2.844-2.036 3.501 4.883 1.018-.729-4.14-5.774-4.698 3.362zM130.466 157.988l-3.168-6.359-1.082.54-.938 6.467-2.394-4.806-1.12.559 3.168 6.36 1.149-.573.932-6.31 2.332 4.681 1.121-.559zM120.218 162.668l-2.115-6.784-1.154.362-1.953 6.24-1.598-5.126-1.194.375 2.115 6.784 1.225-.384 1.923-6.087 1.557 4.994 1.194-.374zM103.342 159.398l-3.593.264c-1.333.098-2.011.97-1.934 2.066.06.872.732 1.582 1.497 1.643-.651.187-1.185.825-1.123 1.718.07 1 .852 1.755 2.152 1.659l3.497-.257-.496-7.093zm-.957 4.249l.129 1.84-1.993.147c-.64.047-1.03-.32-1.067-.852-.037-.532.298-.941.938-.988l1.993-.147zm-.214-3.062l.138 1.967-2.047.15c-.714.053-1.119-.366-1.156-.898-.043-.617.336-1.019 1.018-1.069l2.047-.15zM94.148 159.792l-1.247-.084-.19 2.649-1.876-.127c-1.482-.1-2.397.864-2.483 2.067-.086 1.202.672 2.279 2.164 2.38l3.124.211.508-7.096zm-4.517 4.591c.049-.681.593-1.093 1.296-1.046l1.706.116-.162 2.255-1.706-.115c-.703-.048-1.183-.529-1.134-1.21zM80.527 157.906l-1.336-.288 1.206 7.542 1.524.328 4.264-6.364-1.336-.288-.805 1.224-3.298-.71-.219-1.444zm.86 6.386l-.533-3.794 2.61.562-2.078 3.232zM73.286 161.048l-.72 1.886 1.168.44.72-1.885c.656-1.717.27-2.65-1.218-3.21a5.074 5.074 0 00-1.9-.317l1.035-2.714-1.168-.44-2.541 6.654 1.168.441 1.15-3.013c.437-.007.965.078 1.484.273.998.377 1.215.858.822 1.885zM67.594 153.147l-4.273-2.344-.533.963 3.179 1.744-.958 1.729-3.113-1.708-.534.963 3.114 1.708-.896 1.618-3.178-1.744-.534.962 4.273 2.345 3.453-6.236zM52.925 153.012a2.307 2.307 0 00-2.056-.383l.18.782c.475-.148.98-.087 1.395.229.424.323.607.784.598 1.288l.804-.033a2.341 2.341 0 00-.921-1.883zm2.802 1.407l4.337-5.662-.959-.729-6.228 2.032 3.277-4.278-.993-.756-4.336 5.662 1.018.774 6.084-1.966-3.192 4.168.992.755z" fill="#D77C69"/><circle cx="96.61" cy="96.5" r="52" stroke="#D77C69"/><circle cx="150.61" cy="54.5" r="1.5" fill="#D77C69"/><circle cx="42.61" cy="137.5" r="1.5" fill="#D77C69"/></svg>
